static/fa/svgs/regular/face-grin-hearts.svg

<svg xmlns="http://www.w3.org/2000/svg" viewBox="0 0 512 512"><!--! Font Awesome Free 6.1.1 by @fontawesome - https://fontawesome.com License - https://fontawesome.com/license/free (Icons: CC BY 4.0, Fonts: SIL OFL 1.1, Code: MIT License) Copyright 2022 Fonticons, Inc.--><path d="M349.5 308.4c18.7-5.3 35.9 12 24.6 28.1-23.7 38.1-67.8 62.6-118.2 62.6-50.3 0-94.4-24.5-119-62.6-10.4-16.1 6.8-33.4 25.4-28.1 29 6.7 60.5 10.4 93.6 10.4 33.1 0 64.7-3.7 93.6-10.4zM238.9 177.1 221.4 243c-2.3 8.6-11 13.6-19.6 11.3l-65.1-17.4c-17.8-4.8-28.3-23.1-23.6-40.8 4.8-17.8 23.1-28.4 40-23.6l17 4.3 4.3-16.1c4.8-17.8 23.1-28.3 40.9-23.6 17.8 4.8 28.3 23.1 23.6 40zm103-.3 16.1-4.3c17.8-4.8 36.1 5.8 40.9 23.6 4.7 17.7-5.8 36-23.6 40.8l-65.1 17.4c-8.6 2.3-17.3-2.7-19.6-11.3l-17.5-65.9c-4.7-16.9 5.8-35.2 23.6-40 17.8-4.7 36.1 5.8 40.9 23.6l4.3 16.1zM512 256c0 141.4-114.6 256-256 256S0 397.4 0 256 114.6 0 256 0s256 114.6 256 256zM256 48C141.1 48 48 141.1 48 256s93.1 208 208 208 208-93.1 208-208S370.9 48 256 48z"/></svg>

<svg xmlns="http://www.w3.org/2000/svg" viewBox="0 0 512 512"><!--! Font Awesome Free 6.1.1 by @fontawesome - https://fontawesome.com License - https://fontawesome.com/license/free (Icons: CC BY 4.0, Fonts: SIL OFL 1.1, Code: MIT License) Copyright 2022 Fonticons, Inc. --><path d="M349.5 308.4C368.2 303.1 385.4 320.4 374.1 336.5C350.4 374.6 306.3 399.1 255.9 399.1C205.6 399.1 161.5 374.6 136.9 336.5C126.5 320.4 143.7 303.1 162.3 308.4C191.3 315.1 222.8 318.8 255.9 318.8C289 318.8 320.6 315.1 349.5 308.4zM238.9 177.1L221.4 243C219.1 251.6 210.4 256.6 201.8 254.3L136.7 236.9C118.9 232.1 108.4 213.8 113.1 196.1C117.9 178.3 136.2 167.7 153.1 172.5L170.1 176.8L174.4 160.7C179.2 142.9 197.5 132.4 215.3 137.1C233.1 141.9 243.6 160.2 238.9 177.1H238.9zM341.9 176.8L358 172.5C375.8 167.7 394.1 178.3 398.9 196.1C403.6 213.8 393.1 232.1 375.3 236.9L310.2 254.3C301.6 256.6 292.9 251.6 290.6 243L273.1 177.1C268.4 160.2 278.9 141.9 296.7 137.1C314.5 132.4 332.8 142.9 337.6 160.7L341.9 176.8zM512 256C512 397.4 397.4 512 256 512C114.6 512 0 397.4 0 256C0 114.6 114.6 0 256 0C397.4 0 512 114.6 512 256zM256 48C141.1 48 48 141.1 48 256C48 370.9 141.1 464 256 464C370.9 464 464 370.9 464 256C464 141.1 370.9 48 256 48z"/></svg>
